X:1
T:Keep on Praying
T:Keep on Praying
T:Mabel F. Gohl
T:Frederick William Vandersloot, 1906
T:Public Domain Courtesy of the Cyber Hymnal™
T:Public Domain Courtesy of the Cyber Hymnal™
C:Mabel F. Gohl
Z:Public Domain
Z:Courtesy of the Cyber Hymnal™
%%score ( 1 2 ) ( 3 4 )
L:1/8
Q:1/4=110
M:2/4
K:F
V:1 treble 
V:2 treble 
V:3 bass 
V:4 bass 
V:1
 [FA]2 [FA]2 | [CG] [CF]2 [A,C] | [B,D]2 F2 | [CA]4 | [Fd]2 [F_d]2 | [Fc] [CA]2 [^CG] | %6
w: 1.~Keep on|pray- ing to|God on|high,|Keep on|pray- ing, He|
w: 2.~Keep on|pray- ing when|bowed with|sin,|Keep on|pray- ing and|
w: 3.~Keep on|pray- ing, you’ll|grow in|grace,|Keep on|pray- ing and|
w: 4.~Keep on|pray- ing, He’s|ev- er|near,|Keep on|pray- ing, ’twill|
w: 5.~Keep on|pray- ing all|through the|strife,|Prayer will|pur- chase a|
 [DF]2 [FA]2 | [EG]4 | [FA]2 [FA]2 | [CG] [CF]2 [A,C] | [B,D]2 F2 | [CA]4 | [Fd]2 [F_d]2 | %13
w: hears your|cry;|God will|an- swer the|sin- cere|heart,|Keep on|
w: you will|win;|Je- sus|suf- fered on|Cal- va-|ry,|Keep on|
w: win the|race;|Je- sus|loves you, His|Word is|true,|Keep on|
w: ban- ish|fear;|“Thro’ the|val- ley” He’ll|walk with|thee;|Guide thy|
w: crown of|life;|Heav’n is|ring- ing with|songs a-|bove;|Hal- le-|
 [Fc][FA] F[FG] | [FA]2 [EG]2 | [CF]3 ||"^Refrain" [Ac] | [Bd]2 [Bd]2 | [Bd] [Ac]2 [Fc] | %19
w: pray- ing, He will|do His|part.||||
w: pray- ing, He will|an- swer|thee.||||
w: pray- ing, He will|an- swer|you.|For|Je- sus|hears you, He’s|
w: foot- steps to e-|ter- ni-|ty.||||
w: lu- jahs, for a|Sav- ior’s|love!||||
 [Fd][Fc] [Ec][FA] | !fermata!G3 !fermata!_C | [CF]2 [_EA]2 | [Dc] [DB]2 [_DG] | %23
w: ||||
w: ||||
w: list- ening, list- ening|to your|plea, So|keep on pray-|
w: ||||
w: ||||
 [CF][FA] [EA]>[CG] | [CF]4 |] %25
w: ||
w: ||
w: ing, And He will|an-|
w: ||
w: ||
V:2
 x4 | x4 | x2 (D_D) | x4 | x4 | x4 | x4 | x4 | x4 | x4 | x2 (D_D) | x4 | x4 | x2 F x | x4 | x3 || %16
 x | x4 | x4 | x4 | GF E x | x4 | x4 | x4 | x4 |] %25
V:3
 [F,C]2 [F,C]2 | [E,B,] [F,A,]2 F, | [B,,F,]2 [B,,B,]2 | [F,A,]4 | [B,,B,]2 B,2 | %5
w: ~ ~|~ ~ ~|~ ~|~|~ ~|
 A, [F,A,]2 [E,A,] | (A,=C) [G,=B,]2 | [C,C]4 | [F,C]2 [F,C]2 | [E,B,] [F,A,]2 F, | %10
w: ~ ~ ~|~ * ~|~|~ ~|~ ~ ~|
 [B,,F,]2 [B,,B,]2 | [F,A,]4 | [B,,B,]2 (F,G,) | [C,A,][C,A,] [D,=B,][D,B,] | [C,C]2 [C,_B,]2 | %15
w: ~ ~|~|~ ~ *|~ ~ ~ ~|~ ~|
 [F,A,]3 || [F,F] | [B,F]2 [B,F]2 | [B,F] [F,F]2 [A,C] | B,[A,C] [G,C][F,C] | %20
w: ~|~|~ ~|~ ~ ~|list- ening to your|
 !fermata![E,C][D,=B,] !fermata![C,C][E,_B,] | [F,A,]2 [F,C]2 | [^F,A,] [G,B,]2 [G,B,] | %23
w: plea; * * *|||
 [C,A,][C,C] [C,C]>[C,B,] | [F,A,]4 |] %25
w: ||
V:4
 x4 | x3 F, | x4 | x4 | x2 B,2 | A, x3 | D,2 x2 | x4 | x4 | x3 F, | x4 | x4 | x2 B,,2 | x4 | x4 | %15
 x3 || x | x4 | x4 | B, x3 | x4 | x4 | x4 | x4 | x4 |] %25

